public/uploads/icons/sketch-svgrepo-com.svg

<svg height="800" viewBox="0 0 24 24" width="800" xmlns="http://www.w3.org/2000/svg"><path d="m0 0h24v24h-24z" fill="none"/><path d="m16 9h3l-5 7m-4-7h4l-2 8m-7-8h3l2 7m5-12h2l2 3h-3m-5-3h2l1 3h-4m-3-3h2l-1 3h-3m1-5-4 6 10 14 10-14-4-6z"/></svg>

<?xml version="1.0" encoding="utf-8"?><!-- Uploaded to: SVG Repo, www.svgrepo.com, Generator: SVG Repo Mixer Tools -->
<svg width="800px" height="800px" viewBox="0 0 24 24" xmlns="http://www.w3.org/2000/svg">
  <title>sketch</title>
  <rect width="24" height="24" fill="none"/>
  <path d="M16,9h3l-5,7M10,9h4l-2,8M5,9H8l2,7M15,4h2l2,3H16M11,4h2l1,3H10M7,4H9L8,7H5M6,2,2,8,12,22,22,8,18,2Z"/>
</svg>
